X: 1
T: the Bobers o' Brechin
S: from TheSession.org, Calum Pasqua
C: William Marshall (?)
B: The Athole Collection
B: RSCDS: Originally Ours
R: reel
M: 4/4
L: 1/8
K: Amix
c |\
"A"eaag a2eg | "G"dega egdg |\
"A"eaag a2ea | "G"gedB "A"~A3c ||\
"A"eaag a2eg |
"G"dega gede |\
dega egdg | egdB "A"~A3 :: e |\
"A"A2eA cAef | "G"gedg BGdB |
"A"A2eA cAea | "G"gedB "A"~A3e ||\
"A"A2eA cAef | "G"gedg BGdB |\
"A"ABcd efga | "G"gedB "A"~A3 :|[a2A2]
